src/pos-icons/emoticon-tongue-outline.svg

<svg height="24" viewBox="0 0 24 24" width="24" xmlns="http://www.w3.org/2000/svg"><path d="m12 2a10 10 0 0 0 -10 10 10 10 0 0 0 10 10 10 10 0 0 0 10-10 10 10 0 0 0 -10-10m0 18a8 8 0 0 1 -8-8 8 8 0 0 1 8-8 8 8 0 0 1 8 8 8 8 0 0 1 -8 8m-3-10c-.74 0-1.39.4-1.73 1-.17-.29-.27-.64-.27-1a2 2 0 0 1 2-2c1.11 0 2 .9 2 2 0 .36-.1.71-.27 1-.34-.6-.99-1-1.73-1m8 0c0 .36-.1.71-.27 1-.34-.6-.99-1-1.73-1s-1.39.4-1.73 1c-.17-.29-.27-.64-.27-1a2 2 0 0 1 2-2c1.11 0 2 .9 2 2m-1 3v2h-1c0 2-.9 3-2 3s-2-1-2-3h-3v-2z"/></svg>

<?xml version="1.0" encoding="UTF-8"?><!DOCTYPE svg PUBLIC "-//W3C//DTD SVG 1.1//EN" "http://www.w3.org/Graphics/SVG/1.1/DTD/svg11.dtd"><svg xmlns="http://www.w3.org/2000/svg" xmlns:xlink="http://www.w3.org/1999/xlink" version="1.1" id="mdi-emoticon-tongue-outline" width="24" height="24" viewBox="0 0 24 24"><path d="M12,2A10,10 0 0,0 2,12A10,10 0 0,0 12,22A10,10 0 0,0 22,12A10,10 0 0,0 12,2M12,20A8,8 0 0,1 4,12A8,8 0 0,1 12,4A8,8 0 0,1 20,12A8,8 0 0,1 12,20M9,10C8.26,10 7.61,10.4 7.27,11C7.1,10.71 7,10.36 7,10A2,2 0 0,1 9,8C10.11,8 11,8.9 11,10C11,10.36 10.9,10.71 10.73,11C10.39,10.4 9.74,10 9,10M17,10C17,10.36 16.9,10.71 16.73,11C16.39,10.4 15.74,10 15,10C14.26,10 13.61,10.4 13.27,11C13.1,10.71 13,10.36 13,10A2,2 0 0,1 15,8C16.11,8 17,8.9 17,10M16,13V15H15C15,17 14.1,18 13,18C11.9,18 11,17 11,15H8V13H16Z" /></svg>
